gtk-icons/Papirus-GTK/16x16/actions/cm_extractfiles.svg

<?xml version="1.0" encoding="UTF-8" standalone="no"?>
<!-- Created with Inkscape (http://www.inkscape.org/) -->

<svg
   xmlns:osb="http://www.openswatchbook.org/uri/2009/osb"
   xmlns:dc="http://purl.org/dc/elements/1.1/"
   xmlns:cc="http://creativecommons.org/ns#"
   xmlns:rdf="http://www.w3.org/1999/02/22-rdf-syntax-ns#"
   xmlns:svg="http://www.w3.org/2000/svg"
   xmlns="http://www.w3.org/2000/svg"
   xmlns:sodipodi="http://sodipodi.sourceforge.net/DTD/sodipodi-0.dtd"
   xmlns:inkscape="http://www.inkscape.org/namespaces/inkscape"
   sodipodi:docname="cm_extractfiles.svg"
   inkscape:export-filename="/home/sam/source-symbolic.png"
   inkscape:export-xdpi="270"
   inkscape:export-ydpi="270"
   height="16"
   id="svg7384"
   style="enable-background:new"
   version="1.1"
   inkscape:version="0.91 r"
   width="16">
  <sodipodi:namedview
     inkscape:bbox-nodes="true"
     inkscape:bbox-paths="false"
     bordercolor="#666666"
     borderlayer="false"
     borderopacity="1"
     inkscape:current-layer="layer12"
     inkscape:cx="1.5376508"
     inkscape:cy="7.4378284"
     gridtolerance="10"
     inkscape:guide-bbox="true"
     guidetolerance="10"
     id="namedview88"
     inkscape:object-nodes="true"
     inkscape:object-paths="true"
     objecttolerance="10"
     pagecolor="#f7f7f7"
     inkscape:pageopacity="0"
     inkscape:pageshadow="2"
     showborder="true"
     showgrid="false"
     showguides="true"
     inkscape:showpageshadow="false"
     inkscape:snap-bbox="true"
     inkscape:snap-bbox-edge-midpoints="false"
     inkscape:snap-bbox-midpoints="true"
     inkscape:snap-center="false"
     inkscape:snap-global="true"
     inkscape:snap-grids="true"
     inkscape:snap-intersection-paths="true"
     inkscape:snap-midpoints="true"
     inkscape:snap-nodes="true"
     inkscape:snap-object-midpoints="true"
     inkscape:snap-others="true"
     inkscape:snap-page="false"
     inkscape:snap-smooth-nodes="true"
     inkscape:snap-to-guides="true"
     inkscape:window-height="842"
     inkscape:window-maximized="1"
     inkscape:window-width="1600"
     inkscape:window-x="-4"
     inkscape:window-y="32"
     inkscape:zoom="19.88">
    <inkscape:grid
       color="#000000"
       dotted="false"
       empcolor="#0800ff"
       empopacity="0.4627451"
       empspacing="4"
       enabled="true"
       id="grid4866"
       opacity="0.16470588"
       originx="-243.99977"
       originy="-256.03455"
       snapvisiblegridlinesonly="true"
       spacingx="0.25px"
       spacingy="0.25px"
       type="xygrid"
       visible="true" />
  </sodipodi:namedview>
  <metadata
     id="metadata90">
    <rdf:RDF>
      <cc:Work
         rdf:about="">
        <dc:format>image/svg+xml</dc:format>
        <dc:type
           rdf:resource="http://purl.org/dc/dcmitype/StillImage" />
        <dc:title>Paper Symbolic Icon Theme</dc:title>
      </cc:Work>
    </rdf:RDF>
  </metadata>
  <title
     id="title8473">Paper Symbolic Icon Theme</title>
  <defs
     id="defs7386">
    <linearGradient
       id="linearGradient5606"
       osb:paint="solid">
      <stop
         id="stop5608"
         offset="0"
         style="stop-color:#000000;stop-opacity:1;" />
    </linearGradient>
  </defs>
  <g
     inkscape:groupmode="layer"
     id="layer12"
     inkscape:label="actions"
     style="display:inline"
     transform="translate(-484.99997,39.034554)">
    <path
       style="opacity:0.5;fill:#000000;fill-opacity:1;stroke:none"
       d="M 2.90625 1.0351562 C 2.40796 1.0778564 2.06895 1.5150462 1.96875 1.9726562 C 1.677 2.8641762 1.37685 3.7660962 1.09375 4.6601562 L 1 5.0351562 L 1 13.035156 C 1 13.589156 1.446 14.035156 2 14.035156 L 14 14.035156 C 14.554 14.035156 15 13.589156 15 13.035156 L 15 5.0351562 L 14.875 4.5664062 C 14.53677 3.5766762 14.23235 2.5486564 13.875 1.5664062 C 13.66102 1.1282762 13.17315 0.9896363 12.71875 1.0351562 L 2.90625 1.0351562 z M 3.7246094 3.0351562 L 12.257812 3.0351562 C 12.365854 3.3581663 12.479854 3.7029962 12.589844 4.0351562 L 3.3984375 4.0351562 C 3.5071875 3.7013862 3.6142594 3.3711063 3.7246094 3.0351562 z M 8 6.0351562 L 10.75 9.0351562 L 9 9.0351562 L 9 12.035156 L 7 12.035156 L 7 9.0351562 L 5.25 9.0351562 L 8 6.0351562 z "
       transform="translate(484.99997,-39.034554)"
       id="path4142" />
  </g>
</svg>

<?xml version="1.0" encoding="UTF-8" standalone="no"?>
<!-- Created with Inkscape (http://www.inkscape.org/) -->
<svg id="svg7384" xmlns:rdf="http://www.w3.org/1999/02/22-rdf-syntax-ns#" style="enable-background:new" xmlns="http://www.w3.org/2000/svg" xmlns:osb="http://www.openswatchbook.org/uri/2009/osb" height="16" width="16" version="1.1" xmlns:cc="http://creativecommons.org/ns#" xmlns:dc="http://purl.org/dc/elements/1.1/">
 <metadata id="metadata90">
  <rdf:RDF>
   <cc:Work rdf:about="">
    <dc:format>image/svg+xml</dc:format>
    <dc:type rdf:resource="http://purl.org/dc/dcmitype/StillImage"/>
    <dc:title>Paper Symbolic Icon Theme</dc:title>
   </cc:Work>
  </rdf:RDF>
 </metadata>
 <title id="title8473">Paper Symbolic Icon Theme</title>
 <g id="layer12" transform="translate(-485 39.035)">
  <path id="path4142" opacity=".5" d="m2.9062 1.0352c-0.4982 0.0427-0.8372 0.4798-0.9374 0.9375-0.2918 0.8915-0.592 1.7934-0.875 2.6875l-0.0938 0.375v7.9998c0 0.554 0.446 1 1 1h12c0.554 0 1-0.446 1-1v-7.9998l-0.125-0.4688c-0.338-0.9897-0.643-2.0177-1-3-0.214-0.4381-0.702-0.57676-1.156-0.5312h-9.8128zm0.8184 2h8.5334c0.108 0.323 0.222 0.6678 0.332 1h-9.1916c0.1088-0.3338 0.2159-0.6641 0.3262-1zm4.2754 3l2.75 3h-1.75v2.9998h-2v-2.9998h-1.75l2.75-3z" transform="translate(485 -39.035)"/>
 </g>
</svg>
